assets/images/flags/1x1/jm.svg

<?xml version="1.0" encoding="UTF-8" standalone="no"?>
<!-- Created with Sodipodi ("http://www.sodipodi.com/") -->
<!-- /Creative Commons Public Domain -->
<!--
<rdf:RDF xmlns="http://web.resource.org/cc/"
     xmlns:dc="http://purl.org/dc/elements/1.1/"
     xmlns:rdf="http://www.w3.org/1999/02/22-rdf-syntax-ns#">
<Work rdf:about="">
    <dc:title>New Zealand, Australia, United Kingdom, United States,
Bosnia and Herzegovina, Azerbaijan, Armenia, Bahamas, Belgium, Benin,
Bulgaria, Estonia, Finland, Gabon, Gambia, Germany, Greece, Greenland,
Guinea, Honduras, Israel, Jamaica, Jordan, and Romania Flags</dc:title>
    <dc:rights><Agent>
       <dc:title>Daniel McRae</dc:title>
    </Agent></dc:rights>
    <license rdf:resource="http://web.resource.org/cc/PublicDomain" />
</Work>

<License rdf:about="http://web.resource.org/cc/PublicDomain">
    <permits rdf:resource="http://web.resource.org/cc/Reproduction" />
    <permits rdf:resource="http://web.resource.org/cc/Distribution" />
    <permits rdf:resource="http://web.resource.org/cc/DerivativeWorks" />
</License>
</rdf:RDF>
-->
<svg id="svg548" xmlns:rdf="http://www.w3.org/1999/02/22-rdf-syntax-ns#" xmlns="http://www.w3.org/2000/svg" height="512" width="512" version="1.1" xmlns:cc="http://creativecommons.org/ns#" xmlns:dc="http://purl.org/dc/elements/1.1/">
 <metadata id="metadata4617">
  <rdf:RDF>
   <cc:Work rdf:about="">
    <dc:format>image/svg+xml</dc:format>
    <dc:type rdf:resource="http://purl.org/dc/dcmitype/StillImage"/>
   </cc:Work>
  </rdf:RDF>
 </metadata>
 <g id="flag" transform="matrix(.512 0 0 1.024 0 .0000020480)">
  <g id="g571" fill-rule="evenodd" transform="scale(8.3333)">
   <g id="g561">
    <path id="path551" d="m0 0 60 30-60 30z"/>
    <path id="path552" d="m120 0-60 30 60 30z"/>
    <path id="path556" d="m0 0 60 30 60-30z" fill="#090"/>
    <path id="path557" d="m0 60 60-30 60 30z" fill="#090"/>
   </g>
   <path id="path558" d="m120 0h-11.18l-108.82 54.41v5.59h11.18l108.82-54.41z" fill="#fc0"/>
   <path id="path566" d="m0 0v5.5902l108.82 54.41h11.18v-5.59l-108.82-54.41z" fill="#fc0"/>
  </g>
 </g>
</svg>

<svg id="svg548" xmlns="http://www.w3.org/2000/svg" height="512" width="512" version="1.1"><g id="flag" transform="scale(.512 1.024)"><g id="g571" fill-rule="evenodd" transform="scale(8.3333)"><g id="g561"><path id="path551" d="M0 0l60 30L0 60z"/><path id="path552" d="M120 0L60 30l60 30z"/><path id="path556" d="M0 0l60 30 60-30z" fill="#090"/><path id="path557" d="M0 60l60-30 60 30z" fill="#090"/></g><path id="path558" d="M120 0h-11.18L0 54.41V60h11.18L120 5.59z" fill="#fc0"/><path id="path566" d="M0 0v5.59L108.82 60H120v-5.59L11.18 0z" fill="#fc0"/></g></g></svg>
